stuff/config/qss/Default/imgs/white/selectiontool_scalepeg.svg

<?xml version="1.0" encoding="UTF-8" standalone="no"?><!DOCTYPE svg PUBLIC "-//W3C//DTD SVG 1.1//EN" "http://www.w3.org/Graphics/SVG/1.1/DTD/svg11.dtd"><svg width="100%" height="100%" viewBox="0 0 21 17" version="1.1" xmlns="http://www.w3.org/2000/svg" xmlns:xlink="http://www.w3.org/1999/xlink" xml:space="preserve" style="fill-rule:evenodd;clip-rule:evenodd;stroke-linejoin:round;stroke-miterlimit:1.41421;"><path d="M17,14l1,0l0,-1l1,0l0,2l-2,0l0,-1Zm-14,0l10,0l0,-6l-10,0l0,6Zm15,-4l1,0l0,2l-1,0l0,-2Zm0,-3l1,0l0,2l-1,0l0,-2Zm0,-3l1,0l0,2l-1,0l0,-2Zm-16,-3l2,0l0,1l-1,0l0,1l-1,0l0,-2Zm17,2l-1,0l0,-1l-1,0l0,-1l2,0l0,2Zm-14,-2l2,0l0,1l-2,0l0,-1Zm3,0l2,0l0,1l-2,0l0,-1Zm3,0l2,0l0,1l-2,0l0,-1Zm3,0l2,0l0,1l-2,0l0,-1Zm-11,3l0,3l11,0l0,7l1,0l0,1l-13,0l0,-11l1,0Z" style="fill:#a7a7a7;"/><rect x="3" y="8" width="10" height="6" style="fill:#222;"/></svg>

<?xml version="1.0" encoding="utf-8"?>
<!-- Generator: Adobe Illustrator 21.0.2, SVG Export Plug-In . SVG Version: 6.00 Build 0)  -->
<svg version="1.1"
	 id="svg2" inkscape:version="0.91 r13725" sodipodi:docname="selectiontool_scalepeg.svg" xmlns:cc="http://creativecommons.org/ns#" xmlns:dc="http://purl.org/dc/elements/1.1/" xmlns:inkscape="http://www.inkscape.org/namespaces/inkscape" xmlns:rdf="http://www.w3.org/1999/02/22-rdf-syntax-ns#" xmlns:sodipodi="http://sodipodi.sourceforge.net/DTD/sodipodi-0.dtd" xmlns:svg="http://www.w3.org/2000/svg"
	 xmlns="http://www.w3.org/2000/svg" xmlns:xlink="http://www.w3.org/1999/xlink" x="0px" y="0px" viewBox="0 0 21 17"
	 style="enable-background:new 0 0 21 17;" xml:space="preserve">
<style type="text/css">
	.st0{fill:#A7A7A7;}
	.st1{fill:#222222;}
</style>
<path id="path4" inkscape:connector-curvature="0" class="st0" d="M17,14h1v-1h1v2h-2V14z M3,14h10V8H3V14z M18,10h1v2h-1V10z M18,7
	h1v2h-1V7z M18,4h1v2h-1V4z M2,1h2v1H3v1H2V1z M19,3h-1V2h-1V1h2V3z M5,1h2v1H5V1z M8,1h2v1H8V1z M11,1h2v1h-2V1z M14,1h2v1h-2V1z
	 M3,4v3h11v7h1v1H2V4H3z"/>
<rect id="rect6" x="3" y="8" class="st1" width="10" height="6"/>
</svg>
